X: 115
T: Charlie Hardy's
T: Reel, E
C: J. Scott Skinner
L: 1/16
M: 4/4
K: E
B2e2G2e2 B2e2G2e2| c2f2A2f2 c2f2A2f2| e2g2B2g2 e2g2B2e2| g2b2a2f2 g2e2e2c2| 
B2e2G2e2 B2e2G2e2| c2f2A2f2 c2f2A2f2| e2g2B2g2 e2g2B2e2| a2b2c'2d'2 e'2e2e2|| 
a2| g2b2e2f2 g2a2b2g2| f2b2B2c2 d2e2f2a2| g2b2e2f2 g2a2b2e2| a2b2c'2d'2 e'2e2e2a2| 
g2b2e2f2 g2a2b2g2| f2b2B2c2 d2e2f2a2| g2b2a2g2 f2e2d2c2| B2A2G2F2 E8|| 
D: Natalie MacMaster, In My Hands
